X: 40
T: Huode buhe ren yiyang
L: 1/8
M: 2/4
K: D
A BE2 [I:setbarnb 1]| 
A B e a | 
d B A d | 
B4 | 
A BE2 | 
A B e a | 
d B A B | 
A4 |]

@@@ Tune index: 8914
